Obsidian-SemiLight/actions/16s/format-text-superscript.svg

<svg viewBox="0 0 16 16" xmlns="http://www.w3.org/2000/svg"><path d="m6.3828125 2-4.3828125 11h1.3574219l1.1894531-3h4.9277344l1.1523436 3h1.373047l-4.2519531-11zm4.6171875 0v5h1 1.5c.82843 0 1.5-.67157 1.5-1.5 0-.5333-.26819-1.01527-.6875-1.28125.11546-.21254.1875-.45987.1875-.71875 0-.82843-.67156-1.5-1.5-1.5h-1zm1 1h1c.27614 0 .5.22386.5.5s-.22386.5-.5.5h-1zm-4.9375.328125c.11316.37608.711475 2.0819644 1.796875 5.1152344l.2246094.5566406h-4.1425782zm4.9375 1.671875h1 .5c.27615 0 .5.22386.5.5s-.22385.5-.5.5h-1.5z" fill="#4d4d4d"/></svg>

<svg xmlns="http://www.w3.org/2000/svg" viewBox="0 0 16 16">
  <defs id="defs3051">
    <style type="text/css" id="current-color-scheme">
      .ColorScheme-Text {
        color:#4d4d4d;
      }
      </style>
  </defs>
 <path style="fill:currentColor;fill-opacity:1;stroke:none" 
       d="M 6.3828125 2 L 2 13 L 3.3574219 13 L 4.546875 10 L 9.4746094 10 L 10.626953 13 L 12 13 L 7.7480469 2 L 6.3828125 2 z M 11 2 L 11 7 L 12 7 L 13.5 7 C 14.32843 7 15 6.32843 15 5.5 C 15 4.9667 14.73181 4.48473 14.3125 4.21875 C 14.42796 4.00621 14.5 3.75888 14.5 3.5 C 14.5 2.67157 13.82844 2 13 2 L 12 2 L 11 2 z M 12 3 L 13 3 C 13.27614 3 13.5 3.22386 13.5 3.5 C 13.5 3.77614 13.27614 4 13 4 L 12 4 L 12 3 z M 7.0625 3.328125 C 7.17566 3.704205 7.773975 5.4100894 8.859375 8.4433594 L 9.0839844 9 L 4.9414062 9 L 7.0625 3.328125 z M 12 5 L 13 5 L 13.5 5 C 13.77615 5 14 5.22386 14 5.5 C 14 5.77614 13.77615 6 13.5 6 L 12 6 L 12 5 z "
     class="ColorScheme-Text"
     />
</svg>
